sirius_gui/src/main/resources/icons/circular-icons-svg/c-remove-doc.svg

<?xml version="1.0" encoding="UTF-8" standalone="no"?>
<svg
   width="64px"
   height="64px"
   viewBox="0 0 64 64"
   version="1.1"
   id="svg4026"
   sodipodi:docname="c-remove-doc.svg"
   inkscape:version="1.2 (dc2aeda, 2022-05-15)"
   xml:space="preserve"
   xmlns:inkscape="http://www.inkscape.org/namespaces/inkscape"
   xmlns:sodipodi="http://sodipodi.sourceforge.net/DTD/sodipodi-0.dtd"
   xmlns="http://www.w3.org/2000/svg"
   xmlns:svg="http://www.w3.org/2000/svg"
   xmlns:sketch="http://www.bohemiancoding.com/sketch/ns"><sodipodi:namedview
     id="namedview4028"
     pagecolor="#ffffff"
     bordercolor="#000000"
     borderopacity="0.25"
     inkscape:showpageshadow="2"
     inkscape:pageopacity="0.0"
     inkscape:pagecheckerboard="0"
     inkscape:deskcolor="#d1d1d1"
     showgrid="false"
     inkscape:zoom="4.5851542"
     inkscape:cx="-20.173804"
     inkscape:cy="27.916182"
     inkscape:window-width="1710"
     inkscape:window-height="982"
     inkscape:window-x="-27"
     inkscape:window-y="39"
     inkscape:window-maximized="0"
     inkscape:current-layer="c-trashcan" /><!-- Generator: Sketch 3.4 (15575) - http://www.bohemiancoding.com/sketch --><title
     id="title4015">c-document</title><desc
     id="desc4017">Created with Sketch.</desc><defs
     id="defs4019" /><path
     d="M 32,64 C 49.673112,64 64,49.673112 64,32 64,14.326888 49.673112,0 32,0 14.326888,0 0,14.326888 0,32 0,49.673112 14.326888,64 32,64 Z"
     id="Oval-1"
     fill="#1191bb"
     sketch:type="MSShapeGroup"
     style="fill-rule:evenodd;stroke:none;stroke-width:1;fill:#4da6bf;fill-opacity:1" /><g
     id="g9668"
     transform="translate(1.5,-4)"><path
       d="M 18,14 H 47 V 50 H 18 Z m 19,0 H 47 V 24 H 37 Z"
       id="Rectangle-50"
       fill="#ffffff"
       sketch:type="MSShapeGroup"
       style="fill-rule:evenodd;stroke:none;stroke-width:1" /><path
       d="M 39,15.5 45.5,22 H 39 Z"
       id="Rectangle-52"
       fill="#ffffff"
       sketch:type="MSShapeGroup"
       style="fill-rule:evenodd;stroke:none;stroke-width:1" /></g><g
     id="g5979"
     transform="matrix(0.484375,0,0,0.484375,9.0859395,27.006403)"><g
       id="c-trashcan"
       sketch:type="MSArtboardGroup"><circle
         id="Oval-1-5"
         fill="#cc4628"
         sketch:type="MSShapeGroup"
         cx="32"
         cy="32"
         r="32"
         style="fill:#d40f57;fill-opacity:1" /><path
         d="m 17.426945,18.641366 v -3.643264 h 10.929791 v -3.643263 h 8.500949 v 3.643263 h 9.71537 v 3.643264 z m 29.14611,2.428843 -2.428842,31.574952 H 19.855788 L 17.426945,21.070209 Z"
         id="Rectangle-53"
         fill="#ffffff"
         sketch:type="MSShapeGroup"
         style="stroke-width:1.21442" /></g></g></svg>

<?xml version="1.0" encoding="UTF-8"?>
<svg id="svg4026" width="64px" height="64px" version="1.1" viewBox="0 0 64 64" xml:space="preserve" xmlns="http://www.w3.org/2000/svg">
 <!-- Generator: Sketch 3.4 (15575) - http://www.bohemiancoding.com/sketch --><title id="title4015">c-document</title><desc id="desc4017">Created with Sketch.</desc><path id="Oval-1" d="m32 64c17.673 0 32-14.327 32-32s-14.327-32-32-32-32 14.327-32 32 14.327 32 32 32z" fill="#4da6bf" fill-rule="evenodd"/><g id="g9668" transform="translate(1.5,-4)" fill="#fff" fill-rule="evenodd"><path id="Rectangle-50" d="m18 14h29v36h-29zm19 0h10v10h-10z"/><path id="Rectangle-52" d="m39 15.5 6.5 6.5h-6.5z"/></g><g id="g5979" transform="matrix(.48438 0 0 .48438 9.0859 27.006)"><g id="c-trashcan"><circle id="Oval-1-5" cx="32" cy="32" r="32" fill="#d40f57"/><path id="Rectangle-53" d="m17.427 18.641v-3.6433h10.93v-3.6433h8.5009v3.6433h9.7154v3.6433zm29.146 2.4288-2.4288 31.575h-24.288l-2.4288-31.575z" fill="#fff" stroke-width="1.2144"/></g></g></svg>
